raw-svg/sparkles.svg

<svg fill="none" height="24" viewBox="0 0 24 24" width="24" xmlns="http://www.w3.org/2000/svg"><path clip-rule="evenodd" d="m18.8923 5.29743 1.2539.41796c.2735.09117.2735.47804 0 .56921l-1.2539.41796c-.0896.02986-.1599.10016-.1897.18974l-.418 1.25388c-.0912.27351-.478.27351-.5692 0l-.418-1.25388c-.0298-.08958-.1001-.15988-.1897-.18974l-1.2539-.41796c-.2735-.09117-.2735-.47804 0-.56921l1.2539-.41796c.0896-.02986.1599-.10015.1897-.18973l.418-1.25389c.0912-.27351.478-.27351.5692 0l.418 1.25389c.0298.08958.1001.15987.1897.18973zm-9.69869-.25c.25831-.77495 1.35449-.77493 1.61279 0l1.5365 4.60964 4.6097 1.53653c.7749.2583.7749 1.3545 0 1.6128l-4.6097 1.5365-1.5365 4.6097c-.2583.7749-1.35448.7749-1.61279 0l-1.53655-4.6097-4.60964-1.5365c-.77495-.2583-.77493-1.3545 0-1.6128l4.60964-1.53653zm.80638 2.32428-1.02268 3.06799c-.0846.2538-.28377.453-.53758.5376l-3.06803 1.0227 3.06803 1.0227c.25381.0846.45298.2837.53758.5376l1.02268 3.068 1.02271-3.068c.0846-.2539.2837-.453.5376-.5376l3.068-1.0227-3.068-1.0227c-.2539-.0846-.453-.2838-.5376-.5376zm10.14621 10.34369-1.2539-.418c-.0896-.0298-.1599-.1001-.1897-.1897l-.418-1.2539c-.0912-.2735-.478-.2735-.5692 0l-.418 1.2539c-.0298.0896-.1001.1599-.1897.1897l-1.2539.418c-.2735.0912-.2735.478 0 .5692l1.2539.418c.0896.0298.1599.1001.1897.1897l.418 1.2539c.0912.2735.478.2735.5692 0l.418-1.2539c.0298-.0896.1001-.1599.1897-.1897l1.2539-.418c.2735-.0912.2735-.478 0-.5692z" fill="#000" fill-rule="evenodd"/></svg>

<svg width="24" height="24" viewBox="0 0 24 24" fill="none" xmlns="http://www.w3.org/2000/svg">
<path fill-rule="evenodd" clip-rule="evenodd" d="M18.8923 5.29743L20.1462 5.71539C20.4197 5.80656 20.4197 6.19343 20.1462 6.2846L18.8923 6.70256C18.8027 6.73242 18.7324 6.80272 18.7026 6.8923L18.2846 8.14618C18.1934 8.41969 17.8066 8.41969 17.7154 8.14618L17.2974 6.8923C17.2676 6.80272 17.1973 6.73242 17.1077 6.70256L15.8538 6.2846C15.5803 6.19343 15.5803 5.80656 15.8538 5.71539L17.1077 5.29743C17.1973 5.26757 17.2676 5.19728 17.2974 5.1077L17.7154 3.85381C17.8066 3.5803 18.1934 3.5803 18.2846 3.85381L18.7026 5.1077C18.7324 5.19728 18.8027 5.26757 18.8923 5.29743ZM9.19361 5.04743C9.45192 4.27248 10.5481 4.2725 10.8064 5.04743L12.3429 9.65707L16.9526 11.1936C17.7275 11.4519 17.7275 12.5481 16.9526 12.8064L12.3429 14.3429L10.8064 18.9526C10.5481 19.7275 9.45192 19.7275 9.19361 18.9526L7.65706 14.3429L3.04742 12.8064C2.27247 12.5481 2.27249 11.4519 3.04742 11.1936L7.65706 9.65707L9.19361 5.04743ZM9.99999 7.37171L8.97731 10.4397C8.89271 10.6935 8.69354 10.8927 8.43973 10.9773L5.3717 12L8.43973 13.0227C8.69354 13.1073 8.89271 13.3064 8.97731 13.5603L9.99999 16.6283L11.0227 13.5603C11.1073 13.3064 11.3064 13.1073 11.5603 13.0227L14.6283 12L11.5603 10.9773C11.3064 10.8927 11.1073 10.6935 11.0227 10.4397L9.99999 7.37171ZM20.1462 17.7154L18.8923 17.2974C18.8027 17.2676 18.7324 17.1973 18.7026 17.1077L18.2846 15.8538C18.1934 15.5803 17.8066 15.5803 17.7154 15.8538L17.2974 17.1077C17.2676 17.1973 17.1973 17.2676 17.1077 17.2974L15.8538 17.7154C15.5803 17.8066 15.5803 18.1934 15.8538 18.2846L17.1077 18.7026C17.1973 18.7324 17.2676 18.8027 17.2974 18.8923L17.7154 20.1462C17.8066 20.4197 18.1934 20.4197 18.2846 20.1462L18.7026 18.8923C18.7324 18.8027 18.8027 18.7324 18.8923 18.7026L20.1462 18.2846C20.4197 18.1934 20.4197 17.8066 20.1462 17.7154Z" fill="black"/>
</svg>
